poi/svg/2510.svg

<?xml version="1.0" encoding="UTF-8" standalone="no"?>
<svg
   xmlns:dc="http://purl.org/dc/elements/1.1/"
   xmlns:cc="http://creativecommons.org/ns#"
   xmlns:rdf="http://www.w3.org/1999/02/22-rdf-syntax-ns#"
   xmlns:svg="http://www.w3.org/2000/svg"
   xmlns="http://www.w3.org/2000/svg"
   xmlns:sodipodi="http://sodipodi.sourceforge.net/DTD/sodipodi-0.dtd"
   xmlns:inkscape="http://www.inkscape.org/namespaces/inkscape"
   inkscape:version="1.0 (4035a4fb49, 2020-05-01)"
   sodipodi:docname="2510.svg"
   id="svg20"
   version="1.2"
   viewBox="0 0 42.519639 42.519639"
   height="14.999999mm"
   width="14.999999mm">
  <metadata
     id="metadata24">
    <rdf:RDF>
      <cc:Work
         rdf:about="">
        <dc:format>image/svg+xml</dc:format>
        <dc:type
           rdf:resource="http://purl.org/dc/dcmitype/StillImage" />
        <dc:title>Qt SVG Document</dc:title>
      </cc:Work>
    </rdf:RDF>
  </metadata>
  <sodipodi:namedview
     inkscape:current-layer="svg20"
     inkscape:window-maximized="0"
     inkscape:window-y="0"
     inkscape:window-x="0"
     inkscape:cy="28.346482"
     inkscape:cx="28.346482"
     inkscape:zoom="5.8410537"
     showgrid="false"
     id="namedview22"
     inkscape:window-height="480"
     inkscape:window-width="1034"
     inkscape:pageshadow="2"
     inkscape:pageopacity="0"
     guidetolerance="10"
     gridtolerance="10"
     objecttolerance="10"
     borderopacity="1"
     bordercolor="#666666"
     pagecolor="#ffffff" />
  <title
     id="title2">Qt SVG Document</title>
  <desc
     id="desc4">Generated with Qt</desc>
  <defs
     id="defs6" />
  <g
     transform="translate(5.25984,5.25984)"
     id="g18"
     stroke-linejoin="bevel"
     stroke-linecap="square"
     fill-rule="evenodd"
     stroke-width="1"
     stroke="#000000"
     fill="none">
    <g
       id="g10"
       font-style="normal"
       font-weight="400"
       font-size="7.8px"
       font-family="'MS Shell Dlg 2'"
       stroke="none"
       fill-opacity="1"
       fill="#489174">
      <path
         id="path8"
         d="M 37.2598,16 C 37.2598,27.7415 27.7415,37.2598 16,37.2598 4.25851,37.2598 -5.25984,27.7415 -5.25984,16 -5.25984,4.25851 4.25851,-5.25984 16,-5.25984 27.7415,-5.25984 37.2598,4.25851 37.2598,16"
         fill-rule="evenodd"
         vector-effect="non-scaling-stroke" />
    </g>
    <g
       id="g14"
       font-style="normal"
       font-weight="400"
       font-size="7.8px"
       font-family="'MS Shell Dlg 2'"
       transform="translate(16,12.5984)"
       stroke="none"
       fill-opacity="0.94902"
       fill="#ffffff">
      <path
         id="path12"
         d="m 2.55273,6.16748 c 0.50391,0 0.87484,0.13298 1.1128,0.39893 0.27995,0.33593 0.37793,0.70686 0.29394,1.11279 l -1.5957,7.9995 c -0.05599,0.308 -0.19596,0.5704 -0.41992,0.7874 -0.22396,0.2169 -0.48291,0.3254 -0.77686,0.3254 -0.11198,0 -0.209959,-0.042 -0.293943,-0.126 C 0.551107,16.6095 0.292155,16.4451 0.0961914,16.1721 -0.0997721,15.8992 -0.169759,15.5737 -0.11377,15.1958 L 1.08301,8.87598 -2.57031,9.23291 c -0.40593,0.13997 -0.95882,0.20996 -1.65869,0.20996 -0.69987,0 -1.44873,0 -2.24659,0 -0.78385,0 -1.31225,-0.10848 -1.5852,-0.32544 -0.27295,-0.21696 -0.42342,-0.48991 -0.45142,-0.81885 -0.02799,-0.32893 0.0105,-0.68587 0.11548,-1.0708 0.10498,-0.38493 0.15747,-0.73836 0.15747,-1.0603 0,-1.14779 0.09798,-2.22908 0.29395,-3.2439 0.19596,-1.01481 0.49691,-1.90364 0.90283,-2.6665 0.40592,-0.762858 0.92383,-1.36475 1.55371,-1.80566 0.62988,-0.44092 1.35775,-0.66138 2.18359,-0.66138 0.40593,0 0.72087,0.05599 0.94483,0.16797 0.22396,0.11198 0.40242,0.24845 0.5354,0.40942 0.13297,0.16097 0.21346,0.32544 0.24145,0.49341 0.028,0.167969 0.042,0.307943 0.042,0.419922 v 0.272949 c -0.05599,0.5179036 -0.028,0.962321 0.08398,1.333252 0.11198,0.370927 0.25545,0.678877 0.43042,0.923827 0.174968,0.24496 0.363933,0.43742 0.566895,0.57739 0.202962,0.13998 0.3744303,0.25196 0.5144042,0.33594 L 3.41357,1.31738 C 3.69352,1.2334 3.95597,1.25439 4.20093,1.38037 4.44588,1.50635 4.63835,1.70931 4.77832,1.98926 4.8903,2.2832 4.8833,2.55265 4.75732,2.79761 4.63135,3.04256 4.42139,3.23503 4.12744,3.375 L 0.516113,4.88672 C 0.376139,4.94271 0.222168,4.9707 0.0541992,4.9707 H -0.260742 C -0.624674,4.83073 -1.05859,4.59277 -1.5625,4.25684 -2.06641,3.9209 -2.52132,3.46598 -2.92725,2.89209 -3.03923,3.56396 -3.11621,4.24284 -3.1582,4.92871 c -0.042,0.68587 0.03499,1.28776 0.23095,1.80567 l 5.47998,-0.5669 m -3.80029,-8.54541 c -0.71387,0 -1.29826,-0.23096 -1.75317,-0.69287 -0.45492,-0.46191 -0.68238,-1.03581 -0.68238,-1.72168 -0.05599,-0.65788 0.15748,-1.23177 0.64039,-1.72168 0.48291,-0.48991 1.0533,-0.73486 1.71118,-0.73486 0.685869,0 1.2737601,0.24495 1.763669,0.73486 0.489909,0.48991 0.734861,1.0638 0.734861,1.72168 0,0.65788 -0.237954,1.22477 -0.713865,1.70068 -0.4759115,0.47591 -1.042806,0.71387 -1.700685,0.71387 M 9.81738,6.56641 c 0.19592,0 0.37442,0.07698 0.53542,0.23095 0.161,0.15397 0.2414,0.34294 0.2414,0.5669 v 8.94434 c 0,0.2379 -0.0804,0.4199 -0.2414,0.5459 -0.161,0.126 -0.3395,0.189 -0.53542,0.189 H 6.83594 c -0.19597,0 -0.36393,-0.063 -0.50391,-0.189 -0.13997,-0.126 -0.20996,-0.308 -0.20996,-0.5459 V 7.36426 c 0,-0.22396 0.06999,-0.41293 0.20996,-0.5669 C 6.47201,6.64339 6.63997,6.56641 6.83594,6.56641 H 9.81738 M 9.46045,15.3638 c 0.05599,-0.056 0.08398,-0.112 0.08398,-0.168 0,-0.056 0.014,-0.112 0.042,-0.168 0,-0.056 0.02099,-0.0979 0.06298,-0.1259 -0.09798,-0.028 -0.17496,-0.07 -0.23095,-0.126 -0.11198,-0.112 -0.16797,-0.287 -0.16797,-0.5249 0,-0.252 0.04199,-0.4199 0.12597,-0.5039 0.05599,-0.07 0.11198,-0.119 0.16797,-0.147 -0.11198,-0.14 -0.21696,-0.217 -0.31494,-0.231 -0.09798,-0.014 -0.17497,-0.021 -0.23095,-0.021 -0.13998,-0.0559 -0.26246,-0.0559 -0.36744,0 -0.10498,0.056 -0.19946,0.084 -0.28344,0.084 -0.05599,0 -0.12598,-0.014 -0.20996,-0.042 -0.08399,-0.028 -0.16797,-0.042 -0.25196,-0.042 -0.32194,0 -0.58089,0.119 -0.77685,0.357 -0.15397,0.2239 -0.17847,0.5004 -0.07349,0.8293 0.10498,0.329 0.22746,0.6054 0.36743,0.8294 0.11198,0.2659 0.27295,0.3989 0.48291,0.3989 0.08399,0 0.16097,-0.014 0.23096,-0.042 0.06999,-0.028 0.17497,-0.042 0.31494,-0.042 0.08399,0 0.16447,0.014 0.24146,0.042 0.07698,0.028 0.18546,0.042 0.32544,0.042 0.08398,0 0.15397,-0.035 0.20996,-0.105 0.05599,-0.07 0.13997,-0.168 0.25195,-0.2939 M 8.34766,13.2222 c 0.16797,0 0.31494,-0.056 0.44091,-0.168 0.13998,-0.21 0.20997,-0.3989 0.20997,-0.5669 -0.23796,0 -0.39893,0.105 -0.48291,0.3149 -0.11198,0.112 -0.16797,0.252 -0.16797,0.42 M 9.81738,10.0728 H 6.83594 v 0.9028 h 2.98144 v -0.9028 m 0,-1.11284 H 6.83594 V 9.77881 H 9.81738 V 8.95996 m 0,-1.19678 H 6.83594 V 8.58203 H 9.81738 V 7.76318 M -1.87744,9.90479 c 0.27995,0 0.5144,0.11551 0.70337,0.34641 0.188963,0.231 0.283445,0.5214 0.283445,0.8714 0,0.3079 -0.094482,0.5704 -0.283445,0.7873 -0.18897,0.217 -0.42342,0.3255 -0.70337,0.3255 h -2.79248 c -0.06999,0.2799 -0.13298,0.5074 -0.18897,0.6823 -0.05599,0.175 -0.15397,0.3185 -0.29394,0.4304 v 1.3858 h 2.79248 c 0.02799,0 0.04899,0.007 0.06299,0.021 0.01399,0.014 0.03499,0.021 0.06298,0.021 l 0.042,0.042 c 0.23795,0.056 0.41992,0.1854 0.5459,0.3884 0.12597,0.203 0.18896,0.4444 0.18896,0.7244 0,0.3219 -0.09448,0.5879 -0.28345,0.7978 -0.18896,0.21 -0.42342,0.315 -0.70337,0.315 -0.27994,0 -0.5214,-0.105 -0.72436,-0.315 -0.20296,-0.2099 -0.30444,-0.4759 -0.30444,-0.7978 v -0.336 h -4.09424 c 0.05599,0.056 0.08398,0.112 0.08398,0.168 0,0.056 0,0.112 0,0.168 0,0.3219 -0.09798,0.5879 -0.29394,0.7978 -0.19597,0.21 -0.44092,0.315 -0.73487,0.315 -0.27994,0 -0.5214,-0.105 -0.72436,-0.315 -0.20296,-0.2099 -0.30445,-0.4759 -0.30445,-0.7978 0,-0.28 0.06649,-0.5214 0.19947,-0.7244 0.13297,-0.203 0.31144,-0.3324 0.5354,-0.3884 l 0.12597,-0.084 h 2.75049 v -1.3858 c -0.08398,-0.1119 -0.16097,-0.2554 -0.23095,-0.4304 -0.06999,-0.1749 -0.10499,-0.4024 -0.10499,-0.6823 h -2.87646 c -0.23796,0 -0.45841,-0.1085 -0.66138,-0.3255 -0.20293,-0.2169 -0.30443,-0.4794 -0.30443,-0.7873 0,-0.182 0.063,-0.413 0.18895,-0.6929 h -0.08395 c -0.294,0.056 -0.5564,-0.0175 -0.7874,-0.2205 -0.2309,-0.2029 -0.3744,-0.45839 -0.4304,-0.76633 l -1.3647,-8.86035 c -0.056,-0.293946 -0.021,-0.5598963 0.1049,-0.797852 0.126,-0.237956 0.301,-0.405925 0.5249,-0.503906 C -12.2355,-1.08317 -12.3335,-1.51009 -12.2495,-2 l 0.4829,-1.80566 c 0.14,-0.32194 0.3534,-0.5809 0.6404,-0.77686 0.2869,-0.19596 0.5704,-0.26595 0.8503,-0.20996 0.32196,0.08398 0.54592,0.28345 0.6719,0.59839 0.12597,0.31494 0.14697,0.67537 0.06298,1.0813 l -0.46188,1.63769 c -0.07,0.27995 -0.182,0.500409 -0.336,0.661379 -0.1539,0.16097 -0.3149,0.283448 -0.4829,0.367432 0.168,0.223958 0.252,0.4829101 0.252,0.776855 l 1.42771,8.713384 c 0.05599,0.20996 0.06999,0.38492 0.04199,0.5249 -0.02799,0.13997 -0.07698,0.27995 -0.14697,0.41992 l 0.10498,-0.08398 h 7.26465 M 12.127,-3.51172 c 0.1119,0.05599 0.2064,0.14347 0.2834,0.26245 0.077,0.11898 0.0875,0.22046 0.0315,0.30445 l -1.8477,6.9707 h 0.336 V 5.60059 H -0.680664 V 4.76074 c 0.167969,0.13998 0.339437,0.23796 0.514404,0.29395 0.17496768,0.05599 0.332438,0.11198 0.472412,0.16797 H 0.600098 0.999023 L 3.95947,4.02588 H 9.46045 L 11.2241,-2.77686 8.91455,-3.97363 8.51563,0.330566 7.88574,0.876465 7.5708,1.44336 6.45801,1.31738 7.31885,-8.92871 8.59961,-8.69775 8.51563,-8.06787 9.1665,-7.24902 8.99854,-5.08643 12.127,-3.51172 M 7.40283,3.20703 4.98828,3.45898 C 5.14225,3.375 5.24023,3.27002 5.28223,3.14404 5.32422,3.01807 5.34521,2.87809 5.34521,2.72412 L 8.59961,2.26221 V 2.99707 L 7.78076,3.12305 V 3.94189 H 7.40283 V 3.20703"
         fill-rule="evenodd"
         vector-effect="none" />
    </g>
    <g
       id="g16"
       font-style="normal"
       font-weight="400"
       font-size="7.8px"
       font-family="'MS Shell Dlg 2'"
       stroke="none"
       fill-opacity="1"
       fill="#489174" />
  </g>
</svg>

<?xml version="1.0" encoding="UTF-8" standalone="no"?>
<svg width="11.2889mm" height="11.2889mm"
 viewBox="0 0 32 32"
 xmlns="http://www.w3.org/2000/svg" xmlns:xlink="http://www.w3.org/1999/xlink"  version="1.2" baseProfile="tiny">
<title>Qt SVG Document</title>
<desc>Generated with Qt</desc>
<defs>
</defs>
<g fill="none" stroke="black" stroke-width="1" fill-rule="evenodd" stroke-linecap="square" stroke-linejoin="bevel" >

<g fill="#489174" fill-opacity="1" stroke="none" transform="matrix(1,0,0,1,0,0)"
font-family="MS Shell Dlg 2" font-size="7.8" font-weight="400" font-style="normal" 
>
<path vector-effect="non-scaling-stroke" fill-rule="evenodd" d="M37.2598,16 C37.2598,27.7415 27.7415,37.2598 16,37.2598 C4.25851,37.2598 -5.25984,27.7415 -5.25984,16 C-5.25984,4.25851 4.25851,-5.25984 16,-5.25984 C27.7415,-5.25984 37.2598,4.25851 37.2598,16 "/>
</g>

<g fill="#ffffff" fill-opacity="0.94902" stroke="none" transform="matrix(1,0,0,1,16,12.5984)"
font-family="MS Shell Dlg 2" font-size="7.8" font-weight="400" font-style="normal" 
>
<path vector-effect="none" fill-rule="evenodd" d="M2.55273,6.16748 C3.05664,6.16748 3.42757,6.30046 3.66553,6.56641 C3.94548,6.90234 4.04346,7.27327 3.95947,7.6792 L2.36377,15.6787 C2.30778,15.9867 2.16781,16.2491 1.94385,16.4661 C1.71989,16.683 1.46094,16.7915 1.16699,16.7915 C1.05501,16.7915 0.957031,16.7495 0.873047,16.6655 C0.551107,16.6095 0.292155,16.4451 0.0961914,16.1721 C-0.0997721,15.8992 -0.169759,15.5737 -0.11377,15.1958 L1.08301,8.87598 L-2.57031,9.23291 C-2.97624,9.37288 -3.52913,9.44287 -4.229,9.44287 C-4.92887,9.44287 -5.67773,9.44287 -6.47559,9.44287 C-7.25944,9.44287 -7.78784,9.33439 -8.06079,9.11743 C-8.33374,8.90047 -8.48421,8.62752 -8.51221,8.29858 C-8.5402,7.96965 -8.50171,7.61271 -8.39673,7.22778 C-8.29175,6.84285 -8.23926,6.48942 -8.23926,6.16748 C-8.23926,5.01969 -8.14128,3.9384 -7.94531,2.92358 C-7.74935,1.90877 -7.4484,1.01994 -7.04248,0.25708 C-6.63656,-0.505778 -6.11865,-1.10767 -5.48877,-1.54858 C-4.85889,-1.9895 -4.13102,-2.20996 -3.30518,-2.20996 C-2.89925,-2.20996 -2.58431,-2.15397 -2.36035,-2.04199 C-2.13639,-1.93001 -1.95793,-1.79354 -1.82495,-1.63257 C-1.69198,-1.4716 -1.61149,-1.30713 -1.5835,-1.13916 C-1.5555,-0.971191 -1.5415,-0.831217 -1.5415,-0.719238 L-1.5415,-0.446289 C-1.59749,0.0716146 -1.5695,0.516032 -1.45752,0.886963 C-1.34554,1.25789 -1.20207,1.56584 -1.0271,1.81079 C-0.852132,2.05575 -0.663167,2.24821 -0.460205,2.38818 C-0.257243,2.52816 -0.0857747,2.64014 0.0541992,2.72412 L3.41357,1.31738 C3.69352,1.2334 3.95597,1.25439 4.20093,1.38037 C4.44588,1.50635 4.63835,1.70931 4.77832,1.98926 C4.8903,2.2832 4.8833,2.55265 4.75732,2.79761 C4.63135,3.04256 4.42139,3.23503 4.12744,3.375 L0.516113,4.88672 C0.376139,4.94271 0.222168,4.9707 0.0541992,4.9707 L-0.260742,4.9707 C-0.624674,4.83073 -1.05859,4.59277 -1.5625,4.25684 C-2.06641,3.9209 -2.52132,3.46598 -2.92725,2.89209 C-3.03923,3.56396 -3.11621,4.24284 -3.1582,4.92871 C-3.2002,5.61458 -3.12321,6.21647 -2.92725,6.73438 L2.55273,6.16748 M-1.24756,-2.37793 C-1.96143,-2.37793 -2.54582,-2.60889 -3.00073,-3.0708 C-3.45565,-3.53271 -3.68311,-4.10661 -3.68311,-4.79248 C-3.7391,-5.45036 -3.52563,-6.02425 -3.04272,-6.51416 C-2.55981,-7.00407 -1.98942,-7.24902 -1.33154,-7.24902 C-0.645671,-7.24902 -0.0577799,-7.00407 0.432129,-6.51416 C0.922038,-6.02425 1.16699,-5.45036 1.16699,-4.79248 C1.16699,-4.1346 0.929036,-3.56771 0.453125,-3.0918 C-0.0227865,-2.61589 -0.589681,-2.37793 -1.24756,-2.37793 M9.81738,6.56641 C10.0133,6.56641 10.1918,6.64339 10.3528,6.79736 C10.5138,6.95133 10.5942,7.1403 10.5942,7.36426 L10.5942,16.3086 C10.5942,16.5465 10.5138,16.7285 10.3528,16.8545 C10.1918,16.9805 10.0133,17.0435 9.81738,17.0435 L6.83594,17.0435 C6.63997,17.0435 6.47201,16.9805 6.33203,16.8545 C6.19206,16.7285 6.12207,16.5465 6.12207,16.3086 L6.12207,7.36426 C6.12207,7.1403 6.19206,6.95133 6.33203,6.79736 C6.47201,6.64339 6.63997,6.56641 6.83594,6.56641 L9.81738,6.56641 M9.46045,15.3638 C9.51644,15.3078 9.54443,15.2518 9.54443,15.1958 C9.54443,15.1398 9.55843,15.0838 9.58643,15.0278 C9.58643,14.9718 9.60742,14.9299 9.64941,14.9019 C9.55143,14.8739 9.47445,14.8319 9.41846,14.7759 C9.30648,14.6639 9.25049,14.4889 9.25049,14.251 C9.25049,13.999 9.29248,13.8311 9.37646,13.7471 C9.43245,13.6771 9.48844,13.6281 9.54443,13.6001 C9.43245,13.4601 9.32747,13.3831 9.22949,13.3691 C9.13151,13.3551 9.05452,13.3481 8.99854,13.3481 C8.85856,13.2922 8.73608,13.2922 8.6311,13.3481 C8.52612,13.4041 8.43164,13.4321 8.34766,13.4321 C8.29167,13.4321 8.22168,13.4181 8.1377,13.3901 C8.05371,13.3621 7.96973,13.3481 7.88574,13.3481 C7.5638,13.3481 7.30485,13.4671 7.10889,13.7051 C6.95492,13.929 6.93042,14.2055 7.0354,14.5344 C7.14038,14.8634 7.26286,15.1398 7.40283,15.3638 C7.51481,15.6297 7.67578,15.7627 7.88574,15.7627 C7.96973,15.7627 8.04671,15.7487 8.1167,15.7207 C8.18669,15.6927 8.29167,15.6787 8.43164,15.6787 C8.51563,15.6787 8.59611,15.6927 8.6731,15.7207 C8.75008,15.7487 8.85856,15.7627 8.99854,15.7627 C9.08252,15.7627 9.15251,15.7277 9.2085,15.6577 C9.26449,15.5877 9.34847,15.4897 9.46045,15.3638 M8.34766,13.2222 C8.51563,13.2222 8.6626,13.1662 8.78857,13.0542 C8.92855,12.8442 8.99854,12.6553 8.99854,12.4873 C8.76058,12.4873 8.59961,12.5923 8.51563,12.8022 C8.40365,12.9142 8.34766,13.0542 8.34766,13.2222 M9.81738,10.0728 L6.83594,10.0728 L6.83594,10.9756 L9.81738,10.9756 L9.81738,10.0728 M9.81738,8.95996 L6.83594,8.95996 L6.83594,9.77881 L9.81738,9.77881 L9.81738,8.95996 M9.81738,7.76318 L6.83594,7.76318 L6.83594,8.58203 L9.81738,8.58203 L9.81738,7.76318 M-1.87744,9.90479 C-1.59749,9.90479 -1.36304,10.0203 -1.17407,10.2512 C-0.985107,10.4822 -0.890625,10.7726 -0.890625,11.1226 C-0.890625,11.4305 -0.985107,11.693 -1.17407,11.9099 C-1.36304,12.1269 -1.59749,12.2354 -1.87744,12.2354 L-4.66992,12.2354 C-4.73991,12.5153 -4.8029,12.7428 -4.85889,12.9177 C-4.91488,13.0927 -5.01286,13.2362 -5.15283,13.3481 L-5.15283,14.7339 L-2.36035,14.7339 C-2.33236,14.7339 -2.31136,14.7409 -2.29736,14.7549 C-2.28337,14.7689 -2.26237,14.7759 -2.23438,14.7759 L-2.19238,14.8179 C-1.95443,14.8739 -1.77246,15.0033 -1.64648,15.2063 C-1.52051,15.4093 -1.45752,15.6507 -1.45752,15.9307 C-1.45752,16.2526 -1.552,16.5186 -1.74097,16.7285 C-1.92993,16.9385 -2.16439,17.0435 -2.44434,17.0435 C-2.72428,17.0435 -2.96574,16.9385 -3.1687,16.7285 C-3.37166,16.5186 -3.47314,16.2526 -3.47314,15.9307 L-3.47314,15.5947 L-7.56738,15.5947 C-7.51139,15.6507 -7.4834,15.7067 -7.4834,15.7627 C-7.4834,15.8187 -7.4834,15.8747 -7.4834,15.9307 C-7.4834,16.2526 -7.58138,16.5186 -7.77734,16.7285 C-7.97331,16.9385 -8.21826,17.0435 -8.51221,17.0435 C-8.79215,17.0435 -9.03361,16.9385 -9.23657,16.7285 C-9.43953,16.5186 -9.54102,16.2526 -9.54102,15.9307 C-9.54102,15.6507 -9.47453,15.4093 -9.34155,15.2063 C-9.20858,15.0033 -9.03011,14.8739 -8.80615,14.8179 L-8.68018,14.7339 L-5.92969,14.7339 L-5.92969,13.3481 C-6.01367,13.2362 -6.09066,13.0927 -6.16064,12.9177 C-6.23063,12.7428 -6.26563,12.5153 -6.26563,12.2354 L-9.14209,12.2354 C-9.38005,12.2354 -9.6005,12.1269 -9.80347,11.9099 C-10.0064,11.693 -10.1079,11.4305 -10.1079,11.1226 C-10.1079,10.9406 -10.0449,10.7096 -9.91895,10.4297 L-10.0029,10.4297 C-10.2969,10.4857 -10.5593,10.4122 -10.7903,10.2092 C-11.0212,10.0063 -11.1647,9.75081 -11.2207,9.44287 L-12.5854,0.58252 C-12.6414,0.288574 -12.6064,0.0226237 -12.4805,-0.215332 C-12.3545,-0.453288 -12.1795,-0.621257 -11.9556,-0.719238 C-12.2355,-1.08317 -12.3335,-1.51009 -12.2495,-2 L-11.7666,-3.80566 C-11.6266,-4.1276 -11.4132,-4.38656 -11.1262,-4.58252 C-10.8393,-4.77848 -10.5558,-4.84847 -10.2759,-4.79248 C-9.95394,-4.7085 -9.72998,-4.50903 -9.604,-4.19409 C-9.47803,-3.87915 -9.45703,-3.51872 -9.54102,-3.11279 L-10.0029,-1.4751 C-10.0729,-1.19515 -10.1849,-0.974691 -10.3389,-0.813721 C-10.4928,-0.652751 -10.6538,-0.530273 -10.8218,-0.446289 C-10.6538,-0.222331 -10.5698,0.0366211 -10.5698,0.330566 L-9.14209,9.04395 C-9.0861,9.25391 -9.0721,9.42887 -9.1001,9.56885 C-9.12809,9.70882 -9.17708,9.8488 -9.24707,9.98877 L-9.14209,9.90479 L-1.87744,9.90479 M12.127,-3.51172 C12.2389,-3.45573 12.3334,-3.36825 12.4104,-3.24927 C12.4874,-3.13029 12.4979,-3.02881 12.4419,-2.94482 L10.5942,4.02588 L10.9302,4.02588 L10.9302,5.60059 L-0.680664,5.60059 L-0.680664,4.76074 C-0.512695,4.90072 -0.341227,4.9987 -0.16626,5.05469 C0.00870768,5.11068 0.166178,5.16667 0.306152,5.22266 L0.600098,5.22266 L0.999023,5.22266 L3.95947,4.02588 L9.46045,4.02588 L11.2241,-2.77686 L8.91455,-3.97363 L8.51563,0.330566 L7.88574,0.876465 L7.5708,1.44336 L6.45801,1.31738 L7.31885,-8.92871 L8.59961,-8.69775 L8.51563,-8.06787 L9.1665,-7.24902 L8.99854,-5.08643 L12.127,-3.51172 M7.40283,3.20703 L4.98828,3.45898 C5.14225,3.375 5.24023,3.27002 5.28223,3.14404 C5.32422,3.01807 5.34521,2.87809 5.34521,2.72412 L8.59961,2.26221 L8.59961,2.99707 L7.78076,3.12305 L7.78076,3.94189 L7.40283,3.94189 L7.40283,3.20703"/>
</g>

<g fill="#489174" fill-opacity="1" stroke="none" transform="matrix(1,0,0,1,0,0)"
font-family="MS Shell Dlg 2" font-size="7.8" font-weight="400" font-style="normal" 
>
</g>
</g>
</svg>
